public/sheesh/icons16.svg

<svg fill="none" height="40" viewBox="0 0 40 40" width="40" xmlns="http://www.w3.org/2000/svg" xmlns:xlink="http://www.w3.org/1999/xlink"><linearGradient id="a"><stop offset="0" stop-color="#34c796"/><stop offset="1" stop-color="#0b7a55"/></linearGradient><linearGradient id="b" gradientUnits="userSpaceOnUse" x1="20" x2="20" xlink:href="#a" y1="0" y2="40"/><linearGradient id="c" gradientUnits="userSpaceOnUse" x1="19.9992" x2="19.9992" xlink:href="#a" y1="11.1113" y2="28.8891"/><circle cx="20" cy="20" fill="#151722" r="19" stroke="url(#b)" stroke-width="2"/><path d="m19.9992 11.1113c-4.9066 0-8.8888 3.9822-8.8888 8.8889s3.9822 8.8889 8.8888 8.8889c4.9067 0 8.8889-3.9822 8.8889-8.8889s-3.9822-8.8889-8.8889-8.8889zm-2.9066 5.0311c.72 0 1.3155.5867 1.3155 1.3156 0 .72-.5866 1.3155-1.3155 1.3155-.72 0-1.3156-.5866-1.3156-1.3155s.5867-1.3156 1.3156-1.3156zm.1066 7.2356c-.1333.1333-.3022.1955-.4711.1955s-.3377-.0622-.4711-.1955c-.2578-.2578-.2578-.6845 0-.9422l5.8222-5.8223c.2578-.2577.6845-.2577.9423 0 .2577.2578.2577.6845 0 .9423zm5.7067.48c-.72 0-1.3156-.5867-1.3156-1.3156 0-.72.5867-1.3155 1.3156-1.3155.72 0 1.3156.5866 1.3156 1.3155s-.5867 1.3156-1.3156 1.3156z" fill="url(#c)"/></svg>

<svg width="40" height="40" viewBox="0 0 40 40" fill="none" xmlns="http://www.w3.org/2000/svg">
<circle cx="20" cy="20" r="19" fill="#151722" stroke="url(#paint0_linear_342_13693)" stroke-width="2"/>
<path d="M19.9992 11.1113C15.0926 11.1113 11.1104 15.0935 11.1104 20.0002C11.1104 24.9069 15.0926 28.8891 19.9992 28.8891C24.9059 28.8891 28.8881 24.9069 28.8881 20.0002C28.8881 15.0935 24.9059 11.1113 19.9992 11.1113ZM17.0926 16.1424C17.8126 16.1424 18.4081 16.7291 18.4081 17.458C18.4081 18.178 17.8215 18.7735 17.0926 18.7735C16.3726 18.7735 15.777 18.1869 15.777 17.458C15.777 16.7291 16.3637 16.1424 17.0926 16.1424ZM17.1992 23.378C17.0659 23.5113 16.897 23.5735 16.7281 23.5735C16.5592 23.5735 16.3904 23.5113 16.257 23.378C15.9992 23.1202 15.9992 22.6935 16.257 22.4358L22.0792 16.6135C22.337 16.3558 22.7637 16.3558 23.0215 16.6135C23.2792 16.8713 23.2792 17.298 23.0215 17.5558L17.1992 23.378ZM22.9059 23.858C22.1859 23.858 21.5903 23.2713 21.5903 22.5424C21.5903 21.8224 22.177 21.2269 22.9059 21.2269C23.6259 21.2269 24.2215 21.8135 24.2215 22.5424C24.2215 23.2713 23.6348 23.858 22.9059 23.858Z" fill="url(#paint1_linear_342_13693)"/>
<defs>
<linearGradient id="paint0_linear_342_13693" x1="20" y1="0" x2="20" y2="40" gradientUnits="userSpaceOnUse">
<stop stop-color="#34C796"/>
<stop offset="1" stop-color="#0B7A55"/>
</linearGradient>
<linearGradient id="paint1_linear_342_13693" x1="19.9992" y1="11.1113" x2="19.9992" y2="28.8891" gradientUnits="userSpaceOnUse">
<stop stop-color="#34C796"/>
<stop offset="1" stop-color="#0B7A55"/>
</linearGradient>
</defs>
</svg>
